public/icons/Remix-Dark.svg

<svg xmlns="http://www.w3.org/2000/svg" width="256" height="256" fill="none"><rect width="256" height="256" fill="#242938" rx="60"/><path fill="#fff" fill-rule="evenodd" d="M187.903 168.726c1.361 17.488 1.361 25.686 1.361 34.634h-40.462c0-1.949.035-3.732.07-5.54.11-5.621.224-11.482-.687-23.318-1.203-17.329-8.665-21.179-22.386-21.179H62.16v-31.528h65.565c17.331 0 25.997-5.272 25.997-19.231 0-12.275-8.666-19.713-25.997-19.713H62.16V52h72.786c39.236 0 58.734 18.532 58.734 48.134 0 22.142-13.72 36.582-32.256 38.989 15.647 3.129 24.794 12.034 26.479 29.603" clip-rule="evenodd"/><path fill="#fff" fill-rule="evenodd" d="M187.903 168.726c1.361 17.488 1.361 25.686 1.361 34.634h-40.462c0-1.949.035-3.732.07-5.54.11-5.621.224-11.482-.687-23.318-1.203-17.329-8.665-21.179-22.386-21.179H62.16v-31.528h65.565c17.331 0 25.997-5.272 25.997-19.231 0-12.275-8.666-19.713-25.997-19.713H62.16V52h72.786c39.236 0 58.734 18.532 58.734 48.134 0 22.142-13.72 36.582-32.256 38.989 15.647 3.129 24.794 12.034 26.479 29.603" clip-rule="evenodd"/><path fill="#fff" d="M62.16 203.36v-23.503h42.783c7.146 0 8.698 5.3 8.698 8.461v15.042z"/><path stroke="#fff" stroke-opacity=".8" stroke-width=".32" d="M62 203.36v.16h51.801v-15.202c0-1.602-.392-3.755-1.701-5.512-1.314-1.765-3.539-3.109-7.157-3.109H62v23.663Z"/></svg>

<svg width="256" height="256" viewBox="0 0 256 256" fill="none" xmlns="http://www.w3.org/2000/svg">
<rect width="256" height="256" rx="60" fill="#242938"/>
<path fill-rule="evenodd" clip-rule="evenodd" d="M187.903 168.726C189.264 186.214 189.264 194.412 189.264 203.36H148.802C148.802 201.411 148.837 199.628 148.872 197.82C148.982 192.199 149.096 186.338 148.185 174.502C146.982 157.173 139.52 153.323 125.799 153.323H113.643H62.1602V121.795H127.725C145.056 121.795 153.722 116.523 153.722 102.564C153.722 90.2893 145.056 82.8512 127.725 82.8512H62.1602V52H134.946C174.182 52 193.68 70.5318 193.68 100.134C193.68 122.276 179.96 136.716 161.424 139.123C177.071 142.252 186.218 151.157 187.903 168.726V168.726Z" fill="white"/>
<path fill-rule="evenodd" clip-rule="evenodd" d="M187.903 168.726C189.264 186.214 189.264 194.412 189.264 203.36H148.802C148.802 201.411 148.837 199.628 148.872 197.82C148.982 192.199 149.096 186.338 148.185 174.502C146.982 157.173 139.52 153.323 125.799 153.323H113.643H62.1602V121.795H127.725C145.056 121.795 153.722 116.523 153.722 102.564C153.722 90.2893 145.056 82.8512 127.725 82.8512H62.1602V52H134.946C174.182 52 193.68 70.5318 193.68 100.134C193.68 122.276 179.96 136.716 161.424 139.123C177.071 142.252 186.218 151.157 187.903 168.726V168.726Z" fill="white"/>
<path d="M62.1602 203.36V179.857H104.943C112.089 179.857 113.641 185.157 113.641 188.318V203.36H62.1602Z" fill="white"/>
<path d="M62 203.36V203.52H62.16H113.641H113.801V203.36V188.318C113.801 186.716 113.409 184.563 112.1 182.806C110.786 181.041 108.561 179.697 104.943 179.697H62.16H62V179.857V203.36Z" stroke="white" stroke-opacity="0.8" stroke-width="0.32"/>
</svg>
